!!!Melodie: eigene
!!!Typ: Lied
**kern	**silbe	**silbe	**silbe	**silbe	**silbe	**silbe	**silbe	**silbe	**silbe	**silbe
*clefG2	*lang:DE	*lang:DE	*lang:DE	*lang:DE	*lang:DE	*lang:DE	*lang:DE	*lang:DE	*lang:DE	*lang:DE
*k[f#]	*	*	*	*	*	*	*	*	*	*
*met(c)	*	*	*	*	*	*	*	*	*	*
4r	%	.	%	.	%	.	%	.	%	.
4b	Macht	.	Er	.	O	.	Macht	.	Komm,	.
4dd	hoch	.	ist	.	Wohl	.	hoch	.	O	.
4cc	die	.	ge#	.	dem	.	die	.	mein	.
=	=	=	=	=	=	=	=	=	=	=
4b	Tür,	.	#recht,	.	Land,	.	Tür,	.	Hei#	.
4a	die	.	ein	.	O	.	die	.	#land	.
8Lg	Tor’	.	Hel#	.	Wohl	.	Tor’	.	Je#	.
8Ja	|	.	|	.	|	.	|	.	|	.
4b	macht	.	#fer	.	der	.	macht	.	#su	.
=	=	=	=	=	=	=	=	=	=	=
2;a	weit!	.	wert,	.	Stadt,	.	weit,	.	Christ,	.
4r	|	.	|	.	|	.	|	.	|	.
4dd	es	.	Sanft#	.	So	.	Eur'	.	mein	.
=	=	=	=	=	=	=	=	=	=	=
4cc	kommt	.	#mü#	.	die#	.	Herz	.	Her#	.
4cc	der	.	#tig#	.	#sen	.	zum	.	#zens	.
8Lb	Herr	.	#keit	.	Kö#	.	Tem#	.	Tür	.
8Ja	|	.	|	.	|	.	|	.	|	.
4b	der	.	ist	.	#nig	.	#pel	.	dir	.
=	=	=	=	=	=	=	=	=	=	=
4a	Herr#	.	sein	.	bei	.	zu#	.	of#	.
4a	#lich#	.	Ge#	.	sich	.	#be#	.	#fen	.
2;g	#keit,	.	#fährt,	.	hat!	.	#reit	.	ist.	.
=	=	=	=	=	=	=	=	=	=	=
4r	%	.	%	.	%	.	%	.	%	.
4b	ein	.	sein	.	Wohl	.	die	.	Ach,	.
4a	Kö#	.	Kö#	.	al#	.	Zweig#	.	zieh	.
4a	#nig	.	#nigs#	.	#len	.	#lein	.	mit	.
=	=	=	=	=	=	=	=	=	=	=
8Lb	al#	.	#kron'	.	Her#	.	der	.	dei#	.
8Jcc#	|	.	|	.	|	.	|	.	|	.
4dd	#ler	.	ist	.	#zen	.	Gott#	.	#ner	.
4dd	Kö#	.	Hei#	.	in	.	#se#	.	Gna#	.
4cc#	#nig#	.	#lig#	.	ge#	.	#lig#	.	#den	.
=	=	=	=	=	=	=	=	=	=	=
2;dd	#reich	.	#keit,	.	#mein,	.	#keit,	.	ein,	.
4r	%	.	%	.	%	.	%	.	%	.
4b	ein	.	sein	.	da	.	steckt	.	dein’	.
=	=	=	=	=	=	=	=	=	=	=
4a	Hei#	.	Szep#	.	die#	.	auf	.	Freund#	.
4b	#land	.	#ter	.	#ser	.	mit	.	#lich#	.
8La	al#	.	ist	.	Kö#	.	An#	.	#keit	.
8Jcc#	|	.	|	.	|	.	|	.	|	.
4dd	#ler	.	Barm#	.	#nig	.	#dacht,	.	auch	.
=	=	=	=	=	=	=	=	=	=	=
4dd	Welt	.	#her#	.	zie#	.	Lust	.	uns	.
4cc#	zu#	.	#zig#	.	#het	.	und	.	er#	.
2;dd	#gleich,	.	#keit:	.	ein,	.	Freud’,	.	#schein,	.
=|:	=	=	=	=	=	=	=	=	=	=
4r	%	%	%	%	%	%	%	%	%	%
4dd	Der	Der#	all	Der#	er	bringt	so	Ja	dein	den
4ee	Heil	#hal#	un#	#hal#	ist	mit	kommt	Heil	heil'#	Weg
4dd	und	#ben	#ser'	#ben	die	sich	der	und	#ger	zur
=	=	=	=	=	=	=	=	=	=	=
4ee	Le#	jauchzt,	Not	jauchzt,	rech#	lau#	Kö#	Le#	Geist	ew'#
4dd	#ben	mit	zum	mit	#te	#ter	#nig	#ben	uns	#gen
8Lee	mit	Freu#	End’	Freu#	Freu#	Freud’	auch	mit	führ'	See#
8Jdd	|	|	|	|	|	|	|	|	|	|
4cc	sich	#den	er	#den	#den#	und	zu	zu#	und	#lig#
=	=	=	=	=	=	=	=	=	=	=
4;b	bringt,	singt:	bringt,	singt:	#sonn',	Wonn':	euch.	#gleich.	leit'	#keit:
=:|	=	=	=	=	=	=	=	=	=	=
4r	.	%	.	%	.	%	.	%	.	%
4dd	.	Ge#	.	Ge#	.	Ge#	.	Ge#	.	dem
4g	.	#lo#	.	#lo#	.	#lo#	.	#lo#	.	Na#
4g	.	#bet	.	#bet	.	#bet	.	#bet	.	#men
=	=	=	=	=	=	=	=	=	=	=
4cc	.	sei	.	sei	.	sei	.	sei	.	dein,
4b	.	mein	.	mein	.	mein	.	mein	.	O
2;a	.	Gott,	.	Gott,	.	Gott,	.	Gott,	.	Herr,
=	=	=	=	=	=	=	=	=	=	=
4r	.	%	.	%	.	%	.	%	.	%
4dd	.	mein	.	mein	.	mein	.	voll	.	sei
4cc	.	Schöp#	.	Hei#	.	Trö#	.	Rat,	.	e#
4b	.	#fer	.	#land	.	#ster	.	voll	.	#wig
=	=	=	=	=	=	=	=	=	=	=
4a	.	reich	.	groß	.	früh	.	Tat,	.	Preis'
4a	.	von	.	von	.	und	.	voll	.	und
2;g	.	Gnad.	.	Tat.	.	spät.	.	Gnad’.	.	Ehr'.
==	==	==	==	==	==	==	==	==	==	==
*-	*-	*-	*-	*-	*-	*-	*-	*-	*-	*-
